src/img/icons/refresh.svg

<svg width="32" height="32" viewBox="0 0 32 32" fill="none" xmlns="http://www.w3.org/2000/svg">
<path d="M16.0605 27.7334C12.7679 27.7334 9.97922 26.597 7.69436 24.3241C5.40923 22.0512 4.26666 19.2773 4.26666 16.0024C4.26666 12.7275 5.40923 9.95283 7.69436 7.67839C9.97922 5.40394 12.7679 4.26672 16.0605 4.26672C17.8991 4.26672 19.6389 4.67335 21.2801 5.4866C22.921 6.30011 24.2858 7.44789 25.3746 8.92994V5.44006C25.3746 5.10761 25.4876 4.82901 25.7138 4.60425C25.94 4.37923 26.2202 4.26672 26.5543 4.26672C26.8888 4.26672 27.1688 4.37923 27.3945 4.60425C27.6204 4.82901 27.7333 5.10761 27.7333 5.44006V12.4198C27.7333 12.8206 27.5972 13.1564 27.3249 13.4273C27.0523 13.6982 26.7147 13.8337 26.3122 13.8337H19.2964C18.9622 13.8337 18.6821 13.7213 18.4559 13.4966C18.23 13.2715 18.117 12.9927 18.117 12.66C18.117 12.3275 18.23 12.0489 18.4559 11.8242C18.6821 11.5997 18.9622 11.4874 19.2964 11.4874H24.3284C23.4997 9.97695 22.3505 8.78705 20.8807 7.91775C19.4112 7.04817 17.8045 6.61339 16.0605 6.61339C13.4397 6.61339 11.2119 7.52598 9.37734 9.35117C7.54274 11.1764 6.62544 13.3926 6.62544 16.0001C6.62544 18.6075 7.54274 20.8238 9.37734 22.6489C11.2119 24.4741 13.4397 25.3867 16.0605 25.3867C17.8881 25.3867 19.5611 24.9093 21.0796 23.9545C22.5981 22.9999 23.7486 21.7263 24.5309 20.1337C24.68 19.849 24.8993 19.6499 25.1886 19.5365C25.4779 19.4233 25.7728 19.4168 26.0731 19.5169C26.3937 19.6173 26.618 19.8259 26.7462 20.1427C26.8741 20.4598 26.8635 20.7607 26.7143 21.0454C25.7404 23.0711 24.3029 24.6921 22.4017 25.9085C20.5005 27.1251 18.3868 27.7334 16.0605 27.7334Z" fill="#131212"/>
</svg>

<svg xmlns="http://www.w3.org/2000/svg" viewBox="0 0 32 32">
  <path fill="currentColor" d="M16.06 27.733c-3.292 0-6.08-1.136-8.366-3.409-2.285-2.273-3.427-5.047-3.427-8.322 0-3.274 1.142-6.05 3.427-8.324s5.074-3.411 8.367-3.411c1.838 0 3.578.406 5.22 1.22a11.167 11.167 0 0 1 4.094 3.443V5.44c0-.332.113-.611.339-.836.226-.225.506-.337.84-.337.335 0 .615.112.84.337.226.225.34.504.34.836v6.98c0 .4-.137.736-.41 1.007a1.38 1.38 0 0 1-1.012.407h-7.016c-.334 0-.614-.113-.84-.337a1.134 1.134 0 0 1-.339-.837c0-.332.113-.611.339-.836.226-.224.506-.337.84-.337h5.032a9.226 9.226 0 0 0-3.447-3.57c-1.47-.869-3.076-1.304-4.82-1.304-2.621 0-4.85.913-6.684 2.738-1.834 1.825-2.752 4.042-2.752 6.65 0 2.607.918 4.823 2.752 6.648 1.835 1.825 4.063 2.738 6.684 2.738 1.827 0 3.5-.478 5.019-1.433a9.255 9.255 0 0 0 3.45-3.82c.15-.285.37-.484.659-.598.289-.113.584-.12.884-.02.32.101.545.31.673.627a1.03 1.03 0 0 1-.032.902 11.673 11.673 0 0 1-4.312 4.863c-1.902 1.217-4.015 1.825-6.341 1.825Z"/>
</svg>
